local/share/icons/dracula-icons-main/scalable/apps/libreoffice-draw.svg

<?xml version="1.0" encoding="UTF-8"?>
<svg xmlns="http://www.w3.org/2000/svg" xmlns:xlink="http://www.w3.org/1999/xlink" width="64" height="64" viewBox="0 0 64 64">
<defs>
<filter id="filter-remove-color" x="0%" y="0%" width="100%" height="100%">
<feColorMatrix color-interpolation-filters="sRGB" values="0 0 0 0 1 0 0 0 0 1 0 0 0 0 1 0 0 0 1 0" />
</filter>
<mask id="mask-0">
<g filter="url(#filter-remove-color)">
<rect x="-6.4" y="-6.4" width="76.8" height="76.8" fill="rgb(0%, 0%, 0%)" fill-opacity="0.5"/>
</g>
</mask>
<clipPath id="clip-0">
<rect x="0" y="0" width="17" height="17"/>
</clipPath>
<g id="source-949" clip-path="url(#clip-0)">
<path fill-rule="nonzero" fill="rgb(100%, 100%, 100%)" fill-opacity="1" d="M 9.847656 2.546875 L 14.386719 7.085938 C 13.859375 4.832031 12.097656 3.074219 9.847656 2.546875 Z M 9.847656 2.546875 "/>
</g>
</defs>
<path fill-rule="nonzero" fill="rgb(97.647059%, 80.784314%, 11.372549%)" fill-opacity="1" d="M 15.609375 8.464844 C 15.609375 12.410156 12.410156 15.609375 8.464844 15.609375 C 4.519531 15.609375 1.324219 12.410156 1.324219 8.464844 C 1.324219 4.519531 4.519531 1.324219 8.464844 1.324219 C 12.410156 1.324219 15.609375 4.519531 15.609375 8.464844 Z M 15.609375 8.464844 "/>
<g mask="url(#mask-0)">
<use xlink:href="#source-949"/>
</g>
<path fill-rule="nonzero" fill="rgb(100%, 100%, 100%)" fill-opacity="1" d="M 8.195312 2.390625 C 4.945312 2.535156 2.382812 5.210938 2.382812 8.464844 C 2.382812 11.828125 5.105469 14.550781 8.464844 14.550781 C 11.71875 14.546875 14.394531 11.984375 14.539062 8.734375 Z M 8.195312 2.390625 "/>
<path fill-rule="evenodd" fill="rgb(80%, 80%, 80%)" fill-opacity="1" d="M 10.71875 7.328125 C 10.585938 7.28125 10.417969 7.257812 10.261719 7.347656 C 10.003906 7.492188 9.910156 7.777344 9.910156 8.039062 C 9.910156 8.300781 9.976562 8.574219 10.035156 8.835938 C 10.097656 9.097656 10.148438 9.347656 10.144531 9.523438 C 10.144531 9.703125 10.121094 9.773438 10.011719 9.824219 C 9.925781 9.871094 9.871094 9.871094 9.816406 9.863281 C 9.746094 9.84375 9.679688 9.804688 9.625 9.753906 C 9.472656 9.625 9.300781 9.378906 9.105469 9.117188 C 8.910156 8.855469 8.691406 8.570312 8.390625 8.371094 C 8.058594 8.144531 7.648438 8.070312 7.257812 8.164062 L 7.25 8.164062 C 6.960938 8.242188 6.742188 8.464844 6.589844 8.734375 C 6.441406 9.003906 6.347656 9.332031 6.300781 9.679688 C 6.296875 9.734375 6.308594 9.792969 6.304688 9.851562 C 6.203125 9.84375 6.117188 9.808594 6.015625 9.808594 L 5.515625 9.796875 L 5.300781 9.789062 L 5.289062 10.21875 L 5.507812 10.226562 L 6.007812 10.234375 C 6.117188 10.242188 6.199219 10.273438 6.308594 10.28125 C 6.320312 10.800781 6.402344 11.316406 6.648438 11.710938 L 6.65625 11.726562 C 7.039062 12.25 7.691406 12.402344 8.175781 12.214844 C 8.429688 12.121094 8.625 11.910156 8.691406 11.644531 C 8.753906 11.371094 8.675781 11.050781 8.453125 10.707031 C 8.238281 10.375 7.871094 10.164062 7.445312 10.023438 C 7.230469 9.953125 6.972656 9.949219 6.730469 9.914062 C 6.734375 9.855469 6.722656 9.792969 6.726562 9.734375 C 6.769531 9.429688 6.851562 9.148438 6.96875 8.941406 C 7.078125 8.738281 7.214844 8.621094 7.359375 8.582031 C 7.628906 8.507812 7.921875 8.5625 8.152344 8.726562 C 8.375 8.875 8.574219 9.117188 8.761719 9.371094 C 8.949219 9.625 9.121094 9.886719 9.34375 10.078125 C 9.453125 10.171875 9.582031 10.25 9.734375 10.28125 C 9.894531 10.308594 10.058594 10.285156 10.203125 10.207031 C 10.472656 10.074219 10.574219 9.785156 10.574219 9.527344 C 10.578125 9.269531 10.515625 9 10.453125 8.738281 C 10.394531 8.476562 10.339844 8.222656 10.339844 8.039062 C 10.339844 7.855469 10.367188 7.777344 10.472656 7.71875 C 10.472656 7.71875 10.507812 7.707031 10.585938 7.734375 C 10.660156 7.757812 10.757812 7.8125 10.851562 7.875 C 11.035156 8 11.1875 8.148438 11.1875 8.148438 L 11.34375 8.300781 L 11.640625 7.992188 L 11.488281 7.84375 C 11.488281 7.84375 11.3125 7.671875 11.089844 7.519531 C 10.976562 7.441406 10.851562 7.375 10.722656 7.324219 Z M 6.738281 10.347656 C 6.929688 10.378906 7.148438 10.382812 7.3125 10.433594 C 7.683594 10.554688 7.957031 10.734375 8.09375 10.941406 C 8.273438 11.222656 8.300781 11.425781 8.273438 11.550781 C 8.242188 11.679688 8.160156 11.761719 8.019531 11.816406 C 7.742188 11.921875 7.273438 11.835938 7.011719 11.476562 C 6.835938 11.191406 6.761719 10.777344 6.738281 10.347656 Z M 6.738281 10.347656 "/>
</svg>

<svg width="64" height="64" version="1.1" viewBox="0 0 16.933 16.933" xmlns="http://www.w3.org/2000/svg" xmlns:xlink="http://www.w3.org/1999/xlink">
 <g>
  <circle cx="8.4665" cy="8.4665" r="7.1436" fill="#f9ce1d" style="paint-order:stroke fill markers"/>
  <path d="m9.8473 2.5466 4.5381 4.5381c-0.52723-2.2523-2.2858-4.0109-4.5381-4.5381z" fill="#fff" opacity=".5" stroke-width=".85185" style="paint-order:stroke fill markers"/>
  <path d="m8.1952 2.391c-3.2506 0.14506-5.812 2.8216-5.814 6.0755-1e-7 3.3608 2.7245 6.0853 6.0853 6.0853 3.2538-4e-3 5.9287-2.567 6.0719-5.8176z" fill="#fff" stroke-width=".85185" style="paint-order:stroke fill markers"/>
 </g>
 <path d="m10.72 7.329c-0.136-0.046-0.302-0.07-0.457 0.017-0.26 0.145-0.353 0.432-0.353 0.694 0 0.261 0.066 0.534 0.126 0.795 0.06 0.262 0.112 0.513 0.11 0.69-1e-3 0.179-0.026 0.247-0.134 0.301-0.086 0.044-0.14 0.047-0.194 0.036a0.45 0.45 0 0 1-0.194-0.109c-0.15-0.129-0.322-0.373-0.517-0.636s-0.417-0.546-0.716-0.747a1.422 1.422 0 0 0-1.133-0.205h-9e-3c-0.29 0.078-0.507 0.298-0.658 0.569-0.15 0.27-0.244 0.598-0.29 0.947-6e-3 0.055 7e-3 0.113 3e-3 0.17-0.101-7e-3 -0.187-0.042-0.29-0.044l-0.498-0.012-0.215-5e-3 -0.01 0.43 0.215 5e-3 0.5 0.011c0.11 5e-3 0.194 0.037 0.302 0.046 0.013 0.517 0.093 1.033 0.34 1.43l4e-3 7e-3 5e-3 6e-3c0.382 0.524 1.034 0.676 1.519 0.488a0.818 0.818 0 0 0 0.514-0.567c0.064-0.274-0.013-0.594-0.237-0.94-0.213-0.33-0.58-0.542-1.007-0.682-0.214-0.07-0.474-0.073-0.715-0.109 4e-3 -0.06-0.01-0.121-3e-3 -0.18 0.04-0.306 0.124-0.587 0.239-0.792 0.113-0.204 0.248-0.321 0.391-0.361a0.943 0.943 0 0 1 0.793 0.143c0.223 0.15 0.423 0.392 0.611 0.646 0.188 0.253 0.36 0.516 0.582 0.706 0.11 0.095 0.238 0.174 0.389 0.204a0.73 0.73 0 0 0 0.472-0.074c0.266-0.133 0.368-0.42 0.371-0.679s-0.062-0.529-0.122-0.79c-0.06-0.263-0.115-0.516-0.115-0.7 0-0.183 0.029-0.261 0.133-0.32 2e-3 0 0.036-0.01 0.112 0.015 0.075 0.026 0.174 0.08 0.266 0.143 0.184 0.125 0.339 0.274 0.339 0.274l0.153 0.15 0.3-0.307-0.154-0.15s-0.174-0.17-0.397-0.322a1.547 1.547 0 0 0-0.37-0.195zm-3.983 3.02c0.192 0.03 0.412 0.032 0.575 0.085 0.372 0.122 0.646 0.3 0.78 0.508 0.183 0.282 0.209 0.483 0.18 0.61-0.03 0.126-0.112 0.209-0.252 0.263-0.277 0.107-0.746 0.02-1.01-0.338-0.175-0.284-0.249-0.7-0.273-1.129z" color="#000000" fill="#ccc" fill-rule="evenodd" font-weight="400" overflow="visible" solid-color="#000000" style="isolation:auto;mix-blend-mode:normal;text-decoration-color:#000000;text-decoration-line:none;text-decoration-style:solid;text-indent:0;text-transform:none;white-space:normal"/>
</svg>
